src/pos-icons/heart-broken.svg

<svg height="24" viewBox="0 0 24 24" width="24" xmlns="http://www.w3.org/2000/svg"><path d="m12 21.35-1.45-1.32c-5.15-4.67-8.55-7.76-8.55-11.53 0-3.09 2.42-5.5 5.5-5.5.67 0 1.32.12 1.94.33l3.56 6.02-4 5zm4.5-18.35c3.08 0 5.5 2.41 5.5 5.5 0 3.77-3.4 6.86-8.55 11.53l-1.45 1.32-1-7 4.5-5-2.65-5.08c1.02-.8 2.32-1.27 3.65-1.27z"/></svg>

<?xml version="1.0" encoding="UTF-8"?><!DOCTYPE svg PUBLIC "-//W3C//DTD SVG 1.1//EN" "http://www.w3.org/Graphics/SVG/1.1/DTD/svg11.dtd"><svg xmlns="http://www.w3.org/2000/svg" xmlns:xlink="http://www.w3.org/1999/xlink" version="1.1" id="mdi-heart-broken" width="24" height="24" viewBox="0 0 24 24"><path d="M12,21.35L10.55,20.03C5.4,15.36 2,12.27 2,8.5C2,5.41 4.42,3 7.5,3C8.17,3 8.82,3.12 9.44,3.33L13,9.35L9,14.35L12,21.35V21.35M16.5,3C19.58,3 22,5.41 22,8.5C22,12.27 18.6,15.36 13.45,20.03L12,21.35L11,14.35L15.5,9.35L12.85,4.27C13.87,3.47 15.17,3 16.5,3Z" /></svg>
